X: 35674
T: Sailor's Wife, The
R: jig
M: 6/8
K: Dminor
A,|:DEF E2D|d2e f2g|agf edc|AcA GEC|
DEF E2D|d2e f2g|afd efe|d3 d3:|
|:fga fga|fga agf|efg efg|efg gfe|
fga agf|efg gfe|fdf e=ce|d3 d3:|

